ufans-frontend-package/public/assets/images/new-home/icon/cart-icon.svg

<svg width="100" height="116" viewBox="0 0 100 116" fill="none" xmlns="http://www.w3.org/2000/svg">
<g clip-path="url(#clip0_1350_5)">
<path d="M4.6278 28.4819H25.7298V24.1826C25.8546 17.8507 28.4575 11.8202 32.9797 7.3863C37.5018 2.9524 43.5824 0.46875 49.9155 0.46875C56.2487 0.46875 62.3293 2.9524 66.8514 7.3863C71.3735 11.8202 73.9764 17.8507 74.1012 24.1826V28.4819H95.3722C95.9779 28.4836 96.5774 28.6047 97.1363 28.8382C97.6952 29.0718 98.2026 29.4132 98.6295 29.843V29.843C99.0591 30.2714 99.3998 30.7806 99.6317 31.3413C99.8637 31.9019 99.9825 32.5029 99.9812 33.1097V98.725C99.9688 103.128 98.2144 107.347 95.1011 110.46C91.9879 113.573 87.769 115.328 83.3662 115.34H16.615C12.2139 115.328 7.99639 113.574 4.88341 110.463C1.77044 107.352 0.0148598 103.136 0 98.7344L0 33.1191C0.000463771 32.5117 0.120952 31.9105 0.354539 31.3499C0.588127 30.7893 0.930207 30.2804 1.36112 29.8524V29.8524C1.78798 29.4226 2.29537 29.0812 2.85429 28.8476C3.4132 28.614 4.01267 28.493 4.61842 28.4913L4.6278 28.4819ZM31.6249 28.4819H68.2343V24.1826C68.2343 19.3279 66.3058 14.672 62.873 11.2392C59.4402 7.80644 54.7843 5.87791 49.9296 5.87791C45.0749 5.87791 40.419 7.80644 36.9862 11.2392C33.5534 14.672 31.6249 19.3279 31.6249 24.1826V28.4819V28.4819ZM25.7298 40.685V34.3769H5.89505V92.5765H94.1331V34.3769H74.1012V40.7226C75.2678 41.3984 76.1768 42.4426 76.6854 43.6912C77.194 44.9398 77.2734 46.322 76.911 47.6206C76.5487 48.9193 75.7652 50.0607 74.6837 50.8656C73.6021 51.6706 72.2838 52.0934 70.9358 52.0676C69.5878 52.0418 68.2866 51.569 67.2366 50.7233C66.1866 49.8777 65.4473 48.7071 65.1348 47.3956C64.8224 46.0841 64.9545 44.706 65.5104 43.4777C66.0664 42.2494 67.0146 41.2407 68.2061 40.6099V34.3769H31.5967V40.6756C32.7761 41.329 33.7051 42.3556 34.2375 43.5943C34.77 44.8329 34.8759 46.2134 34.5385 47.5188C34.2011 48.8241 33.4395 49.9804 32.3735 50.8059C31.3075 51.6314 29.9975 52.0794 28.6492 52.0794C27.3009 52.0794 25.9909 51.6314 24.9249 50.8059C23.8589 49.9804 23.0974 48.8241 22.76 47.5188C22.4226 46.2134 22.5284 44.8329 23.0609 43.5943C23.5934 42.3556 24.5223 41.329 25.7017 40.6756L25.7298 40.685Z" fill="white"/>
</g>
<defs>
<clipPath id="clip0_1350_5">
<rect width="100" height="115.348" fill="white"/>
</clipPath>
</defs>
</svg>

<svg xmlns="http://www.w3.org/2000/svg" xmlns:xlink="http://www.w3.org/1999/xlink" width="100" height="115.348" viewBox="0 0 100 115.348">
  <defs>
    <clipPath id="clip-path">
      <rect id="Rectangle_1" data-name="Rectangle 1" width="100" height="115.348" fill="#fff"/>
    </clipPath>
  </defs>
  <g id="cart-icon" clip-path="url(#clip-path)">
    <path id="Path_1" data-name="Path 1" d="M4.628,28.482h21.1v-4.3a24.19,24.19,0,0,1,48.371,0v4.3H95.372a4.609,4.609,0,0,1,3.257,1.361h0a4.6,4.6,0,0,1,1.352,3.267V98.725A16.662,16.662,0,0,1,83.366,115.34H16.615A16.662,16.662,0,0,1,0,98.734V33.119a4.609,4.609,0,0,1,1.361-3.267h0a4.609,4.609,0,0,1,3.257-1.361Zm27,0H68.234v-4.3a18.3,18.3,0,1,0-36.609,0v4.3Zm-5.9,12.2V34.377H5.9v58.2H94.133v-58.2H74.1v6.346a6.083,6.083,0,1,1-5.9-.113V34.377H31.6v6.3a6.083,6.083,0,1,1-5.9,0Z" fill="#fff"/>
  </g>
</svg>
